X: 39158
T: Sweets Of May, The
R: jig
M: 6/8
K: Gmajor
|:GBd B2 G|A2 B cBA|GBd B2 G|AFD G3|
GBd B2 G|A2 B cBA|GBd B2 G|AFD G3:|
ABA A2 G|E2 G A3|G2 A B2 A|B2 c dcB|
ABA A2 G|E2 G A2 D|GBd B2 G|AFD G3||
G2 D G2 A|BAB cBA|G2 D G2 B|AFD G3|
G2 D G2 A|BAB cBA|G2 D G2 B|AFD G3||
|:d3 d^cd|D3 D3|c3 cBc|D3 DEF|
G2 D G2 A|BAB cBA|GBd B2 G|AFD G3:|

